X: 30202
T: ROSLIN CASTLE DEAD MARCH
C:
%R: march, reel
B: Elias Howe "The Musician's Companion" Part 3 1844 p.20 #2
S: http://imslp.org/wiki/The_Musician's_Companion_(Howe,_Elias)
S: https://archive.org/stream/firstthirdpartof03howe/#page/66/mode/1up
Z: 2016 John Chambers <jc:trillian.mit.edu>
M: C
L: 1/16
K: Em
% - - - - - - - - - - - - - - - - - - - - - - - - -
G3F |\
E4 B3c B4 A2B2 | {d}c2B2 A2G2 F4 G3F |\
E4 e3f {ef}g4 f2e2 | ^d3e f2d2 B4 A3B |\
{d}c2B2 A2G2 F4 G2A2 | B2G2F2E2 {e}^d4 e3f |\
g2e2 f2^d2 e2B2 A2B2 | G4 F3E E4 :|
|: B4 |\
e4 e2f2 {a}g4 f2e2 | b3a gbag {g}f4 e2^d2 |\
e2B2 e2f2 g4 f2e2 | ^d3e fedc B4 A2B2 |\
{d}c2B2 A2G2 F4 G2A2 | B2G2F2E2 {e}^d4 e3f |\
g2e2 f2^d2 e2B2 A2B2 | G4 F3E E4 :|
% - - - - - - - - - - - - - - - - - - - - - - - - -
